src/main/resources/icons/DatabaseIcons/icons/mongoFieldGoldKey.svg

<svg xmlns="http://www.w3.org/2000/svg" width="16" height="16" viewBox="0 0 16 16">
  <g fill="none" fill-rule="evenodd">
    <path fill="#9AA7B0" d="M7.0844 14C4.6688 13.5514019 3.9956 12.6542056 3.9956 11.2242991 3.9956 11.0140187 4.0352 10.4953271 4.0352 10.2570093 4.0352 9.1635514 3.6128 8.81308411 2.5832 8.81308411L2 8.81308411 2 7.18691589 2.5832 7.18691589C3.6128 7.18691589 4.0352 6.8364486 4.0352 5.74299065 4.0352 5.5046729 3.9956 4.98598131 3.9956 4.77570093 3.9956 3.34579439 4.6688 2.44859813 7.0844 2L7.4408 3.41588785C6.0416 3.8364486 5.8304 4.22897196 5.8304 5.08411215 5.8304 5.36448598 5.87 5.8271028 5.87 6.12149533 5.87 7.14485981 5.3816 7.69158879 4.4972 8 5.3816 8.30841121 5.87 8.85514019 5.87 9.87850467 5.87 10.1728972 5.8304 10.635514 5.8304 10.9158879 5.8304 11.771028 6.0416 12.1635514 7.4408 12.5841121L7.0844 14zM10.1693253 10.8281657C10.4157787 11.0743 10.6950503 11.2891049 11.0000375 11.4652159L11.0012461 13.2719297C10.5704079 13.5560812 9.97559673 13.7808317 9.17043655 13.9498293L8.9164 14 8.56 12.5841121C9.9592 12.1635514 10.1704 11.771028 10.1704 10.9158879 10.1704 10.8883003 10.1700166 10.8589483 10.1693253 10.8281657zM8.56 3.41588785L8.9164 2C10.9517608 2.37798437 11.7500904 3.07445465 11.9509885 4.13972703 11.2650191 4.32525057 10.6537702 4.68801669 10.1675875 5.17556386L10.1704 5.08411215C10.1704 4.26969292 9.97883537 3.87488079 8.75190956 3.47583021L8.56 3.41588785 8.9164 2z"/>
    <path fill="#D9A343" d="M13,5 C14.6568542,5 16,6.34314575 16,8 C16,9.30588222 15.1656226,10.4168852 14.0009007,10.8289758 L14,13 L16,13 L16,15 L14,15 L14,16 L12,16 L12.0000889,10.8293257 C10.8348501,10.4175144 10,9.30625206 10,8 C10,6.34314575 11.3431458,5 13,5 Z M13,7 C12.4477153,7 12,7.44771525 12,8 C12,8.55228475 12.4477153,9 13,9 C13.5522847,9 14,8.55228475 14,8 C14,7.44771525 13.5522847,7 13,7 Z"/>
  </g>
</svg>

<svg xmlns="http://www.w3.org/2000/svg" width="16" height="16" viewBox="0 0 16 16"><rect id="frame" width="16" height="16" fill="none"/><g fill="none" fill-rule="evenodd"><path fill="#9AA7B0" d="M7.084 14c-2.415-.449-3.088-1.346-3.088-2.776 0-.21.04-.729.04-.967 0-1.093-.423-1.444-1.453-1.444H2V7.187h.583c1.03 0 1.452-.35 1.452-1.444 0-.238-.04-.757-.04-.967 0-1.43.674-2.327 3.09-2.776l.356 1.416c-1.4.42-1.61.813-1.61 1.668 0 .28.039.743.039 1.037 0 1.024-.488 1.57-1.373 1.879.885.308 1.373.855 1.373 1.879 0 .294-.04.757-.04 1.037 0 .855.212 1.248 1.61 1.668L7.085 14zm3.085-3.172c.247.246.526.461.831.637l.001 1.807c-.43.284-1.025.509-1.83.678l-.255.05-.356-1.416c1.4-.42 1.61-.813 1.61-1.668v-.088zM8.56 3.416L8.916 2c2.036.378 2.834 1.074 3.035 2.14a3.99 3.99 0 0 0-1.783 1.036l.002-.092c0-.814-.191-1.21-1.418-1.608l-.192-.06L8.916 2z"/><path fill="#D9A343" d="M13 5a3 3 0 0 1 1 5.829V13h2v2h-2v1h-2v-5.17A3.001 3.001 0 0 1 13 5zm0 2a1 1 0 1 0 0 2 1 1 0 0 0 0-2z"/></g></svg>
